Obsidian/status/22s/pia_tray_connecting.svg

<svg height="22" width="22" xmlns="http://www.w3.org/2000/svg"><g fill="#d3dae3"><path d="m11.5 3c-3.0372436 0-5.4995438 2.3276432-5.5 5.199219.00172.133675.00888.267238.021484.40039h-.021484v.400391h-1.1660156c-.4616667 0-.8339844.346455-.8339844.777344v5.445312c0 .430889.3723177.777344.8339844.777344h1.1660156v2.199219c0 .4432.3769338.800781.8457031.800781h2.9628907l1.2675782-2h.847656l1.267578 2h2.962891c.468769 0 .845703-.357581.845703-.800781v-2.199219h1.166016c.461666 0 .833984-.346455.833984-.777344v-5.445312c0-.430889-.372318-.777344-.833984-.777344h-1.166016v-.400391h-.01758c.0113-.1332.01716-.266763.01758-.40039-.000456-2.8715758-2.462756-5.199219-5.5-5.199219zm0 2c1.932663-.0000001 3.5.9990235 3.5 3.976563-.000558.01498-.0012.03191-.002.04687l-6.998-.001949c-.0000931-.01497-.0000931-.02995 0-.04492 0-2.9775405 1.567337-3.9765642 3.5-3.976564zm-2.5 2v1h1v-1zm4 0v1h1v-1zm-5.5 4a1.5 1.5 0 0 1 1.5 1.5 1.5 1.5 0 0 1 -1.5 1.5 1.5 1.5 0 0 1 -1.5-1.5 1.5 1.5 0 0 1 1.5-1.5zm4 0a1.5 1.5 0 0 1 1.5 1.5 1.5 1.5 0 0 1 -1.5 1.5 1.5 1.5 0 0 1 -1.5-1.5 1.5 1.5 0 0 1 1.5-1.5zm4 0a1.5 1.5 0 0 1 1.5 1.5 1.5 1.5 0 0 1 -1.5 1.5 1.5 1.5 0 0 1 -1.5-1.5 1.5 1.5 0 0 1 1.5-1.5z" opacity=".3"/><path d="m7 12v1h1v-1zm4 0v1h1v-1zm4 0v1h1v-1z"/></g></svg>

<svg xmlns="http://www.w3.org/2000/svg" width="22" height="22" version="1.1">
 <defs>
  <style id="current-color-scheme" type="text/css">
   .ColorScheme-Text { color:#d3dae3; } .ColorScheme-Highlight { color:#5294e2; }
  </style>
 </defs>
 <path style="opacity:0.3;fill:currentColor" class="ColorScheme-Text" d="M 11.5,3 C 8.4627564,3 6.0004562,5.3276432 6,8.199219 6.00172,8.332894 6.00888,8.466457 6.021484,8.599609 L 6,8.599609 6,9 4.8339844,9 C 4.3723177,9 4,9.346455 4,9.777344 l 0,5.445312 C 4,15.653545 4.3723177,16 4.8339844,16 L 6,16 6,18.199219 C 6,18.642419 6.3769338,19 6.8457031,19 l 2.9628907,0 1.2675782,-2 0.847656,0 1.267578,2 2.962891,0 C 16.623066,19 17,18.642419 17,18.199219 L 17,16 18.166016,16 C 18.627682,16 19,15.653545 19,15.222656 L 19,9.777344 C 19,9.346455 18.627682,9 18.166016,9 L 17,9 l 0,-0.400391 -0.01758,0 C 16.99372,8.466409 16.99958,8.332846 17,8.199219 16.999544,5.3276432 14.537244,3 11.5,3 Z m 0,2 c 1.932663,-1e-7 3.5,0.9990235 3.5,3.976563 -5.58e-4,0.01498 -0.0012,0.03191 -0.002,0.04687 L 8,9.021484 C 7.9999069,9.006514 7.9999069,8.991534 8,8.976564 8,5.9990235 9.567337,4.9999998 11.5,5 Z M 9,7 9,8 10,8 10,7 9,7 Z m 4,0 0,1 1,0 0,-1 -1,0 z M 7.5,11 A 1.5,1.5 0 0 1 9,12.5 1.5,1.5 0 0 1 7.5,14 1.5,1.5 0 0 1 6,12.5 1.5,1.5 0 0 1 7.5,11 Z m 4,0 A 1.5,1.5 0 0 1 13,12.5 1.5,1.5 0 0 1 11.5,14 1.5,1.5 0 0 1 10,12.5 1.5,1.5 0 0 1 11.5,11 Z m 4,0 A 1.5,1.5 0 0 1 17,12.5 1.5,1.5 0 0 1 15.5,14 1.5,1.5 0 0 1 14,12.5 1.5,1.5 0 0 1 15.5,11 Z"/>
 <path style="fill:currentColor" class="ColorScheme-Text" d="m 7,12 0,1 1,0 0,-1 -1,0 z m 4,0 0,1 1,0 0,-1 -1,0 z m 4,0 0,1 1,0 0,-1 -1,0 z"/>
</svg>
